X: 1
T: Joe's Tuxedo
R: jig
M: 6/8
L: 1/8
K: Dmaj
|:A3 DFA|cdc BAF|ABA dAF|E3 EFG|
ABA DFA|d(3Bcd edB|ABA dAF|EFE D3:|
f3 fed|B3 Bcd|ABA dAF|E2D EFA|
dea fed|B3 Bcd|ABA dAF|EFE D3|
f3 fed|B3 Bcd|ABA dAF|E2D EFG|
ABA DFA|d(3Bcd edB|ABA dAF|EFE D3||

